X: 1
T: Brig of Perth
C: Daniel Dow 1773
O: as taught by Barbara McOwen, BHSFC Aug 2014
M: 4/4
L: 1/8
K: Amix=g
e |\
"A"A<A e>A "D"d>A f>A | "A"c>A e>A a>e c<e |\
"A"A>c e>d c>e A<e | "G"B<d G>B g>d B :|
e |\
"A"A>a e>a c<a e<a | "A"A<a e>f e>A c2 |\
"A"A>a e<a c<a e<a | "G"g>a d<g B>G B ||
e |\
"A"A>a e>a c<a e<a | "A"A<a e>f e>A c2 |\
"A"A>a g<a e<a c<a | "G"B>g d<g B>G B |]
